Newaita-dark/.DP/24/shutter-panel.svg

<svg xmlns="http://www.w3.org/2000/svg" xmlns:xlink="http://www.w3.org/1999/xlink" width="24px" height="24px" viewBox="0 0 24 24" version="1.1">
<g id="surface1">
<path style=" stroke:none;fill-rule:nonzero;fill:rgb(93.333334%,93.333334%,93.333334%);fill-opacity:0.392157;" d="M 8.242188 11.601562 L 3.835938 16.007812 C 4.742188 17.921875 6.304688 19.453125 8.242188 20.320312 Z M 8.242188 11.601562 "/>
<path style=" stroke:none;fill-rule:nonzero;fill:rgb(93.333334%,93.333334%,93.333334%);fill-opacity:0.392157;" d="M 8.917969 14.363281 L 8.917969 20.59375 C 10.914062 21.304688 13.101562 21.28125 15.085938 20.53125 Z M 8.917969 14.363281 "/>
<path style=" stroke:none;fill-rule:nonzero;fill:rgb(93.333334%,93.333334%,93.333334%);fill-opacity:1;" d="M 11.890625 3.210938 C 11.824219 3.210938 11.757812 3.210938 11.6875 3.214844 C 10.6875 3.242188 9.691406 3.445312 8.742188 3.804688 L 14.910156 9.96875 L 14.910156 3.738281 C 13.933594 3.390625 12.914062 3.210938 11.890625 3.210938 Z M 11.890625 3.210938 "/>
<path style=" stroke:none;fill-rule:nonzero;fill:rgb(93.333334%,93.333334%,93.333334%);fill-opacity:1;" d="M 15.585938 4.011719 L 15.585938 12.734375 L 19.992188 8.328125 C 19.085938 6.414062 17.519531 4.882812 15.585938 4.011719 Z M 15.585938 4.011719 "/>
<path style=" stroke:none;fill-rule:nonzero;fill:rgb(93.333334%,93.333334%,93.333334%);fill-opacity:1;" d="M 8.070312 4.085938 C 6.15625 4.992188 4.617188 6.558594 3.75 8.496094 L 12.480469 8.496094 Z M 8.070312 4.085938 "/>
<path style=" stroke:none;fill-rule:nonzero;fill:rgb(93.333334%,93.333334%,93.333334%);fill-opacity:1;" d="M 20.273438 8.996094 L 14.109375 15.164062 L 20.34375 15.164062 C 21.054688 13.167969 21.03125 10.976562 20.273438 8.996094 Z M 20.273438 8.996094 "/>
<path style=" stroke:none;fill-rule:nonzero;fill:rgb(93.333334%,93.333334%,93.333334%);fill-opacity:1;" d="M 3.484375 9.171875 C 2.773438 11.164062 2.796875 13.355469 3.550781 15.335938 L 9.71875 9.171875 Z M 3.484375 9.171875 "/>
<path style=" stroke:none;fill-rule:nonzero;fill:rgb(93.333334%,93.333334%,93.333334%);fill-opacity:1;" d="M 11.347656 15.835938 L 15.753906 20.242188 C 17.667969 19.335938 19.199219 17.773438 20.070312 15.835938 Z M 11.347656 15.835938 "/>
</g>
</svg>

<svg xmlns="http://www.w3.org/2000/svg" width="32" height="32" viewBox="0 0 24 24"><path d="M8.242 11.602l-4.406 4.406a8.937 8.937 0 0 0 4.406 4.316zm0 0M8.918 14.363v6.23a8.955 8.955 0 0 0 6.168-.062zm0 0" fill="#424242"/><path d="M11.89 3.21c-.066 0-.136.005-.203.005-1 .027-1.996.23-2.945.59l6.168 6.168V3.738a9 9 0 0 0-3.02-.527zm0 0M15.586 4.012v8.722l4.406-4.41a8.914 8.914 0 0 0-4.406-4.312zm0 0M8.066 4.086a8.937 8.937 0 0 0-4.32 4.41h8.734zm0 0M20.277 8.996l-6.168 6.168h6.23a8.91 8.91 0 0 0-.062-6.168zm0 0M3.484 9.172a8.933 8.933 0 0 0 .067 6.168l6.168-6.168zm0 0M11.348 15.836l4.406 4.41a8.945 8.945 0 0 0 4.316-4.41zm0 0" fill="#bdbdbd"/></svg>
